svg/24/shuffle.svg

<svg width="24" height="24" viewBox="0 0 24 24" fill="currentColor" xmlns="http://www.w3.org/2000/svg"><path d="M19.2803 2.71967C18.9874 2.42678 18.5126 2.42678 18.2197 2.71967C17.9268 3.01256 17.9268 3.48744 18.2197 3.78033L19.4393 5H18.2836C15.982 5 13.839 6.17279 12.5983 8.11139L8.13833 15.08C7.17334 16.5878 5.50656 17.5 3.71641 17.5H2.75C2.33579 17.5 2 17.8358 2 18.25C2 18.6642 2.33579 19 2.75 19H3.71641C6.01804 19 8.16103 17.8272 9.40174 15.8886L13.8617 8.91997C14.8267 7.41217 16.4934 6.5 18.2836 6.5H19.4393L18.2197 7.71967C17.9268 8.01256 17.9268 8.48744 18.2197 8.78033C18.5126 9.07322 18.9874 9.07322 19.2803 8.78033L21.7803 6.28033C22.0732 5.98744 22.0732 5.51256 21.7803 5.21967L19.2803 2.71967Z"/><path d="M2.75 5C2.33579 5 2 5.33579 2 5.75C2 6.16421 2.33579 6.5 2.75 6.5H3.71641C5.50656 6.5 7.17334 7.41217 8.13833 8.91997L8.5874 9.62164C8.81068 9.97052 9.27451 10.0723 9.62339 9.84905C9.97227 9.62576 10.0741 9.16193 9.85081 8.81306L9.40174 8.11139C8.16103 6.17279 6.01804 5 3.71641 5H2.75Z"/><path d="M13.4126 14.3784C13.1893 14.0295 12.7255 13.9277 12.3766 14.151C12.0277 14.3742 11.9259 14.8381 12.1492 15.1869L12.5983 15.8886C13.839 17.8272 15.982 19 18.2836 19H19.4393L18.2197 20.2197C17.9268 20.5126 17.9268 20.9874 18.2197 21.2803C18.5126 21.5732 18.9874 21.5732 19.2803 21.2803L21.7803 18.7803C22.0732 18.4874 22.0732 18.0126 21.7803 17.7197L19.2803 15.2197C18.9874 14.9268 18.5126 14.9268 18.2197 15.2197C17.9268 15.5126 17.9268 15.9874 18.2197 16.2803L19.4393 17.5H18.2836C16.4934 17.5 14.8267 16.5878 13.8617 15.08L13.4126 14.3784Z"/></svg>

<svg xmlns="http://www.w3.org/2000/svg" width="24" height="24" fill="currentColor" viewBox="0 0 24 24">
  <path d="M19.28 2.72a.75.75 0 1 0-1.06 1.06L19.44 5h-1.156a6.75 6.75 0 0 0-5.686 3.111l-4.46 6.969a5.25 5.25 0 0 1-4.422 2.42H2.75a.75.75 0 0 0 0 1.5h.966a6.75 6.75 0 0 0 5.686-3.111l4.46-6.969a5.25 5.25 0 0 1 4.422-2.42h1.155l-1.22 1.22a.75.75 0 0 0 1.061 1.06l2.5-2.5a.75.75 0 0 0 0-1.06l-2.5-2.5ZM2.75 5a.75.75 0 0 0 0 1.5h.966a5.25 5.25 0 0 1 4.422 2.42l.45.702a.75.75 0 0 0 1.263-.809l-.45-.702A6.75 6.75 0 0 0 3.717 5H2.75Z"/>
  <path d="M13.413 14.378a.75.75 0 0 0-1.264.809l.45.702A6.75 6.75 0 0 0 18.283 19h1.155l-1.22 1.22a.75.75 0 1 0 1.061 1.06l2.5-2.5a.75.75 0 0 0 0-1.06l-2.5-2.5a.75.75 0 1 0-1.06 1.06l1.22 1.22h-1.156a5.25 5.25 0 0 1-4.422-2.42l-.45-.702Z"/>
</svg>
